X:269
T: SIND DREI DRAUSSEN FRAU MUTTER
N: E0865
O: Europa, Mitteleuropa, Deutschland, Schlesien
R: Hochzeits -, Ehestands - Lied
M: 3/8
L: 1/16
K: A
 | E2A2B2 | c3dc2 | B4E2 | AABBA2 |
E2A2B2 | c3dcc | B6 | A4z2

@@@ Tune index: 4582
